X: 24428
T: Lower Drum Roll, The
R: polka
M: 2/4
K: Gmajor
|:A>B AG|ED EG|A>B AG|ED D2|
A>B AG|ED EG|B/c/d cA|AG G2:|
|:B/c/d ed|cA ed|B/c/d cA|AG ED|
B/c/d ed|cA ed|B/c/d cA|AG G2:|

